svg/fluentui-system-icons/ic_fluent_data_sunburst_20_filled.svg

<svg width="20" height="20" viewBox="0 0 20 20" fill="none" xmlns="http://www.w3.org/2000/svg">
<path d="M6.94233 3.13167C7.07138 3.3758 6.97809 3.67833 6.73395 3.80738C5.48873 4.46561 4.46561 5.48873 3.80738 6.73395C3.67833 6.97809 3.3758 7.07138 3.13167 6.94233C2.88754 6.81328 2.79424 6.51076 2.92329 6.26662C3.67542 4.84377 4.84377 3.67542 6.26662 2.92329C6.51076 2.79424 6.81328 2.88754 6.94233 3.13167ZM13.0582 3.13167C13.1873 2.88754 13.4898 2.79424 13.734 2.92329C15.1568 3.67542 16.3252 4.84377 17.0773 6.26662C17.2063 6.51076 17.113 6.81328 16.8689 6.94233C16.6248 7.07138 16.3222 6.97809 16.1932 6.73395C15.535 5.48873 14.5119 4.46561 13.2666 3.80738C13.0225 3.67833 12.9292 3.3758 13.0582 3.13167ZM3.13167 13.0582C3.3758 12.9292 3.67833 13.0225 3.80738 13.2666C4.46561 14.5119 5.48873 15.535 6.73395 16.1932C6.97809 16.3222 7.07138 16.6248 6.94233 16.8689C6.81328 17.113 6.51076 17.2063 6.26662 17.0773C4.84377 16.3252 3.67542 15.1568 2.92329 13.734C2.79424 13.4898 2.88754 13.1873 3.13167 13.0582ZM16.8689 13.0582C17.113 13.1873 17.2063 13.4898 17.0773 13.734C16.3252 15.1568 15.1568 16.3252 13.734 17.0773C13.4898 17.2063 13.1873 17.113 13.0582 16.8689C12.9292 16.6248 13.0225 16.3222 13.2666 16.1932C14.5119 15.535 15.535 14.5119 16.1932 13.2666C16.3222 13.0225 16.6248 12.9292 16.8689 13.0582ZM10.0001 5.50034C9.84787 5.50034 9.69756 5.50789 9.5495 5.52259C9.27471 5.54987 9.02983 5.34922 9.00255 5.07443C8.97526 4.79964 9.17591 4.55476 9.4507 4.52748C9.63154 4.50952 9.81483 4.50034 10.0001 4.50034C12.4636 4.50034 14.5475 6.11956 15.2482 8.35052C15.331 8.61397 15.1845 8.89462 14.921 8.97737C14.6576 9.06012 14.3769 8.91362 14.2942 8.65017C13.7206 6.82402 12.0143 5.50034 10.0001 5.50034ZM7.39988 5.69969C7.56573 5.92048 7.52118 6.23392 7.30039 6.39976C6.20626 7.22159 5.5001 8.52843 5.5001 10.0003C5.5001 10.8208 5.71923 11.5886 6.10181 12.25C6.24009 12.489 6.1584 12.7949 5.91937 12.9331C5.68034 13.0714 5.37448 12.9897 5.23621 12.7507C4.76795 11.9412 4.5001 11.0013 4.5001 10.0003C4.5001 8.20062 5.36505 6.60277 6.69981 5.6002C6.92061 5.43435 7.23404 5.4789 7.39988 5.69969ZM14.921 11.0233C15.1845 11.1061 15.331 11.3867 15.2482 11.6502C14.5475 13.8811 12.4636 15.5003 10.0001 15.5003C8.99914 15.5003 8.05922 15.2325 7.24974 14.7642C7.01071 14.626 6.92903 14.3201 7.0673 14.0811C7.20557 13.842 7.51143 13.7604 7.75046 13.8986C8.41184 14.2812 9.17962 14.5003 10.0001 14.5003C12.0143 14.5003 13.7206 13.1767 14.2942 11.3505C14.3769 11.0871 14.6576 10.9406 14.921 11.0233ZM10.0001 13.0003C11.657 13.0003 13.0001 11.6572 13.0001 10.0003C13.0001 8.34349 11.657 7.00034 10.0001 7.00034C8.34325 7.00034 7.0001 8.34349 7.0001 10.0003C7.0001 11.6572 8.34325 13.0003 10.0001 13.0003Z" fill="#212121"/>
</svg>

<svg xmlns="http://www.w3.org/2000/svg" width="20" height="20"><path d="M6.942 3.132a.5.5 0 0 1-.208.675 7.034 7.034 0 0 0-2.927 2.927.5.5 0 1 1-.884-.467 8.034 8.034 0 0 1 3.344-3.344.5.5 0 0 1 .675.209Zm6.116 0a.5.5 0 0 1 .676-.209 8.034 8.034 0 0 1 3.343 3.344.5.5 0 0 1-.884.467 7.033 7.033 0 0 0-2.926-2.927.5.5 0 0 1-.209-.675Zm-9.926 9.926a.5.5 0 0 1 .675.209 7.033 7.033 0 0 0 2.927 2.926.5.5 0 1 1-.467.884 8.034 8.034 0 0 1-3.344-3.343.5.5 0 0 1 .209-.676Zm13.737 0a.5.5 0 0 1 .208.676 8.034 8.034 0 0 1-3.343 3.343.5.5 0 0 1-.467-.884 7.033 7.033 0 0 0 2.926-2.926.5.5 0 0 1 .676-.209ZM10 5.5a4.56 4.56 0 0 0-.45.023.5.5 0 0 1-.1-.996 5.502 5.502 0 0 1 5.798 3.823.5.5 0 1 1-.954.3A4.502 4.502 0 0 0 10 5.5Zm-2.6.2a.5.5 0 0 1-.1.7A4.492 4.492 0 0 0 5.5 10c0 .82.22 1.589.602 2.25a.5.5 0 1 1-.866.5A5.477 5.477 0 0 1 4.5 10c0-1.8.865-3.397 2.2-4.4a.5.5 0 0 1 .7.1Zm7.521 5.323a.5.5 0 0 1 .327.627 5.502 5.502 0 0 1-7.998 3.114.5.5 0 1 1 .5-.865 4.502 4.502 0 0 0 6.544-2.548.5.5 0 0 1 .627-.328ZM10.001 13a3 3 0 1 0 0-6 3 3 0 0 0 0 6Z"/></svg>
